!!!SOCIAL_FUNCTION:	songs concerning the gift of a pony
!!!PDT:	1913
!!!OTL: No_124_Song_of_Thanks_for_the_Gift_of_a_Pony.krn
!!!REG: Great_Lakes
!!!LANG: Non-Tone
!!!LING_GROUP: Algonquin
**kern	**kern
*staff2	*staff1
=1-	=1-
*clefF4	*clefF4
*k[b-e-a-d-g-c-]	*k[b-e-a-d-g-c-]
*M2/4	*M2/4
8GG-/L	12e-\L
.	12e-\
8GG-/J	.
.	12f\J
8GG-/L	12f\L
.	12f\
8GG-/J	.
.	12g-\J
=2	=2
8GG-/L	4e-\
8GG-/J	.
8GG-/L	12e-\L
.	12e-\
8GG-/J	.
.	12e-\J
=3	=3
2r	8.e-\L
.	16e-\Jk
.	4e-\
=4	=4
2r	12e-\L
.	12e-\
.	12f\J
.	12f\L
.	12f\
.	12g-\J
=5	=5
2r	4e-\
.	12e-\L
.	12e-\
.	12e-\J
=6	=6
2r	8.e-\L
.	16e-\Jk
.	4e-\
=7||	=7||
*M3/4	*M3/4
2.r	12e-\L
.	12e-\
.	12e-\J
.	8.d-\L
.	16B-\Jk
.	16B-\LK
.	8.A-\J
=8	=8
2.r	8B-\L
.	8A-\J
.	8.G-\L
.	16E-\Jk
.	4E-\
=9	=9
2.r	4G-\
.	16E-\LK
.	8.E-\J
.	8.E-\L
.	16D-\Jk
=10||	=10||
*M2/4	*M2/4
2r	4E-\
.	[4E-\
=11||	=11||
*M3/4	*M3/4
2.r	2.E-\]
=12	=12
2.r	12e-\L
.	12e-\
.	12e-\J
.	8.e-\L
.	16e-\Jk
.	4e-\
=13	=13
2.r	12e-\L
.	12e-\
.	12e-\J
.	8.d-\L
.	16B-\Jk
.	16B-\LK
.	8.A-\J
=14	=14
2.r	8B-\L
.	8A-\J
.	8.G-\L
.	16E-\Jk
.	4E-\
=15	=15
2.r	4G-\
.	16E-\LK
.	8.E-\J
.	8.E-\L
.	16D-\Jk
=16||	=16||
*M2/4	*M2/4
2r	4E-\
.	[4E-\
=17	=17
2r	2E-\]
==	==
*-	*-
